.svelte-kit/output/client/library/social-公众号.svg

<svg width="48" height="48" viewBox="0 0 48 48" fill="none" xmlns="http://www.w3.org/2000/svg">
<path d="M17.9297 7.5C10.4297 12 11.4297 21.5 14.9297 24.5C15.9297 18 20.6016 14.9375 22.4297 13.7188C24.2578 12.5 29.9297 11 35.4297 13C34.9297 9.5 25.4297 3 17.9297 7.5Z" fill="#00CC7A"/>
<path d="M41.4297 23C38.9638 14.6083 30.4297 14 25.9297 15.5C33.4297 18.5 34.8841 23.3579 35.6031 25.4341C36.3221 27.5103 36.4297 35 31.9297 38.5C36.4297 37.5 43.8955 31.3917 41.4297 23Z" fill="#00CC7A"/>
<path d="M14.4297 39C23.4297 42 31.9297 38.5 32.9297 30C29.3699 32.9125 25.1228 32.879 21.9297 32.2307C21.5609 32.1558 17.7609 35.1656 17.4297 35C17.0984 34.8344 17.6102 30.8648 17.4297 30.7807C14.8052 29.5573 9.42966 25.9528 9.42967 18C3.42967 27 5.4297 36 14.4297 39Z" fill="#00CC7A"/>
</svg>

<svg width="48" height="48" fill="none" xmlns="http://www.w3.org/2000/svg"><path d="M17.93 7.5c-7.5 4.5-6.5 14-3 17 1-6.5 5.672-9.563 7.5-10.781 1.828-1.219 7.5-2.719 13-.719-.5-3.5-10-10-17.5-5.5Z" fill="#00CC7A"/><path d="M41.43 23c-2.466-8.392-11-9-15.5-7.5 7.5 3 8.954 7.858 9.673 9.934.72 2.076.827 9.566-3.673 13.066 4.5-1 11.965-7.108 9.5-15.5Z" fill="#00CC7A"/><path d="M14.43 39c9 3 17.5-.5 18.5-9-3.56 2.913-7.807 2.879-11 2.23-.37-.074-4.17 2.936-4.5 2.77-.332-.166.18-4.135 0-4.22-2.625-1.223-8-4.827-8-12.78-6 9-4 18 5 21Z" fill="#00CC7A"/></svg>
